src/assets/bold/lm-square-align-left-bold.svg

<svg width="24" height="24" viewBox="0 0 24 24" fill="none" xmlns="http://www.w3.org/2000/svg" fill="currentColor">
<path d="M21 8.78125C21 8.36704 20.6642 8.03125 20.25 8.03125L3.75001 8.03125C3.3358 8.03125 3.00001 8.36704 3.00001 8.78125C3.00001 9.19547 3.3358 9.53125 3.75001 9.53125L20.25 9.53125C20.6642 9.53125 21 9.19546 21 8.78125Z" fill="black"/>
<path d="M21 4.75C21 4.33579 20.6642 4 20.25 4H3.75001C3.3358 4 3.00001 4.33579 3.00001 4.75C3.00001 5.16421 3.3358 5.5 3.75001 5.5H20.25C20.6642 5.5 21 5.16421 21 4.75Z" fill="black"/>
<path fill-rule="evenodd" clip-rule="evenodd" d="M9.4 12.0625H4.6C4.17565 12.0625 3.76869 12.2311 3.46863 12.5311C3.16857 12.8312 3 13.2382 3 13.6625V18.4625C3 18.8868 3.16857 19.2938 3.46863 19.5939C3.76869 19.8939 4.17565 20.0625 4.6 20.0625H9.4C9.82435 20.0625 10.2313 19.8939 10.5314 19.5939C10.8314 19.2938 11 18.8868 11 18.4625V13.6625C11 13.2382 10.8314 12.8312 10.5314 12.5311C10.2313 12.2311 9.82435 12.0625 9.4 12.0625ZM4.6 18.4625H9.4V13.6625H4.6V18.4625Z" fill="black"/>
</svg>

<svg xmlns="http://www.w3.org/2000/svg" width="24" height="24" fill="currentColor" viewBox="0 0 24 24">
  <path d="M21 8.781a.75.75 0 0 0-.75-.75H3.75a.75.75 0 0 0 0 1.5h16.5a.75.75 0 0 0 .75-.75Zm0-4.031a.75.75 0 0 0-.75-.75H3.75a.75.75 0 0 0 0 1.5h16.5a.75.75 0 0 0 .75-.75Z"/>
  <path fill-rule="evenodd" d="M9.4 12.063H4.6a1.6 1.6 0 0 0-1.6 1.6v4.8a1.6 1.6 0 0 0 1.6 1.6h4.8a1.6 1.6 0 0 0 1.6-1.6v-4.8a1.6 1.6 0 0 0-1.6-1.6Zm-4.8 6.4h4.8v-4.8H4.6v4.8Z" clip-rule="evenodd"/>
</svg>
